X: 15
T:Glan Meddwdod Mwyn
M:3/4
L:1/8
Q:180
C:Trad
S:Blodau'r Grug Collection Vol. 3
A:Wales
Z:brian_martin12345@yahoo.com
K:D
D>E|F2G2A2|d2c2B2|A2AB AG|G2F2 D>E|F2G2A2|B2c2d2|fed2c2|d4:||!
d>e|f2f2e2|d2d2c2|d2d2e2|f4e2|d2d2c2|B2B2A2|G2GB AG|G2F2D>E|!
F2G2A2|B2c2d2|fed2c2|d4D>E|F2G2A2|B2c2d2|e2d2c2|d4||

